src/ui/images/mark/articulation/mordent.svg

<?xml version="1.0" encoding="UTF-8" standalone="no"?>
<svg
   xmlns:dc="http://purl.org/dc/elements/1.1/"
   xmlns:cc="http://web.resource.org/cc/"
   xmlns:rdf="http://www.w3.org/1999/02/22-rdf-syntax-ns#"
   xmlns:svg="http://www.w3.org/2000/svg"
   xmlns="http://www.w3.org/2000/svg"
   xmlns:xlink="http://www.w3.org/1999/xlink"
   xmlns:sodipodi="http://sodipodi.sourceforge.net/DTD/sodipodi-0.dtd"
   xmlns:inkscape="http://www.inkscape.org/namespaces/inkscape"
   viewBox="0 -200 1000 1000"
   id="svg27169"
   sodipodi:version="0.32"
   inkscape:version="0.45.1"
   width="128"
   height="128"
   sodipodi:docname="mordent.svg"
   sodipodi:docbase="/home/matevz/canorus/trunk/src/ui/images/mark/articulation"
   inkscape:export-filename="/home/matevz/apps/canorus/branches/matevz/src/fonts/n2.png"
   inkscape:export-xdpi="120.95"
   inkscape:export-ydpi="120.95"
   inkscape:output_extension="org.inkscape.output.svg.inkscape"
   version="1.0">
  <metadata
     id="metadata27178">
    <rdf:RDF>
      <cc:Work
         rdf:about="">
        <dc:format>image/svg+xml</dc:format>
        <dc:type
           rdf:resource="http://purl.org/dc/dcmitype/StillImage" />
      </cc:Work>
    </rdf:RDF>
  </metadata>
  <defs
     id="defs27176">
    <linearGradient
       id="linearGradient33317">
      <stop
         style="stop-color:#000000;stop-opacity:1;"
         offset="0"
         id="stop33319" />
      <stop
         style="stop-color:#646464;stop-opacity:1;"
         offset="1"
         id="stop33321" />
    </linearGradient>
    <linearGradient
       inkscape:collect="always"
       xlink:href="#linearGradient33317"
       id="linearGradient33323"
       x1="49.270287"
       y1="920.35596"
       x2="110.55885"
       y2="920.35596"
       gradientUnits="userSpaceOnUse" />
    <linearGradient
       inkscape:collect="always"
       xlink:href="#linearGradient33317"
       id="linearGradient8122"
       gradientUnits="userSpaceOnUse"
       x1="49.270287"
       y1="920.35596"
       x2="110.55885"
       y2="920.35596" />
    <linearGradient
       inkscape:collect="always"
       xlink:href="#linearGradient33317"
       id="linearGradient19732"
       gradientUnits="userSpaceOnUse"
       x1="49.270287"
       y1="920.35596"
       x2="110.55885"
       y2="920.35596"
       gradientTransform="matrix(5.6766826,0,0,5.6766826,-206.90519,-4941.8885)" />
    <linearGradient
       inkscape:collect="always"
       xlink:href="#linearGradient33317"
       id="linearGradient20714"
       x1="483.75861"
       y1="336.54208"
       x2="900.97968"
       y2="336.54208"
       gradientUnits="userSpaceOnUse"
       gradientTransform="matrix(0.7657372,0,0,0.7657372,175.82664,67.12053)" />
    <linearGradient
       inkscape:collect="always"
       xlink:href="#linearGradient33317"
       id="linearGradient21697"
       gradientUnits="userSpaceOnUse"
       gradientTransform="matrix(0.7657372,0,0,0.7657372,175.82664,67.12053)"
       x1="483.75861"
       y1="336.54208"
       x2="900.97968"
       y2="336.54208" />
    <linearGradient
       inkscape:collect="always"
       xlink:href="#linearGradient33317"
       id="linearGradient21703"
       gradientUnits="userSpaceOnUse"
       gradientTransform="matrix(5.6766826,0,0,5.6766826,-206.90519,-4941.8885)"
       x1="49.270287"
       y1="920.35596"
       x2="110.55885"
       y2="920.35596" />
    <linearGradient
       inkscape:collect="always"
       xlink:href="#linearGradient33317"
       id="linearGradient21707"
       gradientUnits="userSpaceOnUse"
       gradientTransform="matrix(0.5805313,0,0,0.5805313,-202.92606,52.853836)"
       x1="483.75861"
       y1="336.54208"
       x2="900.97968"
       y2="336.54208" />
    <linearGradient
       inkscape:collect="always"
       xlink:href="#linearGradient33317"
       id="linearGradient23661"
       gradientUnits="userSpaceOnUse"
       gradientTransform="matrix(0.5805313,0,0,0.5805313,-202.92606,52.853836)"
       x1="483.75861"
       y1="336.54208"
       x2="900.97968"
       y2="336.54208" />
    <linearGradient
       inkscape:collect="always"
       xlink:href="#linearGradient33317"
       id="linearGradient2238"
       gradientUnits="userSpaceOnUse"
       gradientTransform="matrix(0.5805313,0,0,0.5805313,-216.73483,128.73884)"
       x1="483.75861"
       y1="336.54208"
       x2="2008.1578"
       y2="336.54208" />
    <linearGradient
       inkscape:collect="always"
       xlink:href="#linearGradient33317"
       id="linearGradient2248"
       gradientUnits="userSpaceOnUse"
       gradientTransform="matrix(0.5805313,0,0,0.5805313,-216.73483,128.73884)"
       x1="483.75861"
       y1="336.54208"
       x2="2008.1578"
       y2="336.54208" />
    <linearGradient
       inkscape:collect="always"
       xlink:href="#linearGradient33317"
       id="linearGradient3229"
       x1="-8.1343279"
       y1="250"
       x2="799"
       y2="250"
       gradientUnits="userSpaceOnUse" />
    <linearGradient
       inkscape:collect="always"
       xlink:href="#linearGradient33317"
       id="linearGradient4216"
       gradientUnits="userSpaceOnUse"
       x1="-8.1343279"
       y1="250"
       x2="799"
       y2="250" />
    <linearGradient
       inkscape:collect="always"
       xlink:href="#linearGradient33317"
       id="linearGradient5390"
       x1="-273"
       y1="0.31521606"
       x2="273"
       y2="0.31521606"
       gradientUnits="userSpaceOnUse" />
    <linearGradient
       inkscape:collect="always"
       xlink:href="#linearGradient33317"
       id="linearGradient6377"
       gradientUnits="userSpaceOnUse"
       x1="-273"
       y1="0.31521606"
       x2="273"
       y2="0.31521606" />
    <linearGradient
       inkscape:collect="always"
       xlink:href="#linearGradient33317"
       id="linearGradient7410"
       x1="37.855946"
       y1="19.808781"
       x2="742.65802"
       y2="19.808781"
       gradientUnits="userSpaceOnUse" />
    <linearGradient
       inkscape:collect="always"
       xlink:href="#linearGradient33317"
       id="linearGradient8393"
       gradientUnits="userSpaceOnUse"
       x1="37.855946"
       y1="19.808781"
       x2="742.65802"
       y2="19.808781" />
    <linearGradient
       inkscape:collect="always"
       xlink:href="#linearGradient33317"
       id="linearGradient2212"
       gradientUnits="userSpaceOnUse"
       x1="37.855946"
       y1="19.808781"
       x2="742.65802"
       y2="19.808781" />
    <linearGradient
       inkscape:collect="always"
       xlink:href="#linearGradient33317"
       id="linearGradient3231"
       x1="-225.0625"
       y1="0"
       x2="225"
       y2="0"
       gradientUnits="userSpaceOnUse" />
    <linearGradient
       inkscape:collect="always"
       xlink:href="#linearGradient33317"
       id="linearGradient4210"
       gradientUnits="userSpaceOnUse"
       x1="-225.0625"
       y1="0"
       x2="225"
       y2="0" />
    <linearGradient
       inkscape:collect="always"
       xlink:href="#linearGradient33317"
       id="linearGradient4218"
       gradientUnits="userSpaceOnUse"
       x1="-225.0625"
       y1="0"
       x2="225"
       y2="0" />
    <linearGradient
       inkscape:collect="always"
       xlink:href="#linearGradient33317"
       id="linearGradient3692"
       x1="-133"
       y1="0.071426392"
       x2="133"
       y2="0.071426392"
       gradientUnits="userSpaceOnUse" />
    <linearGradient
       inkscape:collect="always"
       xlink:href="#linearGradient33317"
       id="linearGradient4677"
       gradientUnits="userSpaceOnUse"
       x1="-133"
       y1="0.071426392"
       x2="133"
       y2="0.071426392" />
    <linearGradient
       inkscape:collect="always"
       xlink:href="#linearGradient33317"
       id="linearGradient4679"
       gradientUnits="userSpaceOnUse"
       x1="-133"
       y1="0.071426392"
       x2="133"
       y2="0.071426392" />
    <linearGradient
       inkscape:collect="always"
       xlink:href="#linearGradient33317"
       id="linearGradient5084"
       x1="-272.60001"
       y1="-0.20692661"
       x2="272.60001"
       y2="-0.20692661"
       gradientUnits="userSpaceOnUse" />
    <linearGradient
       inkscape:collect="always"
       xlink:href="#linearGradient33317"
       id="linearGradient5086"
       gradientUnits="userSpaceOnUse"
       x1="-272.60001"
       y1="-0.20692661"
       x2="272.60001"
       y2="-0.20692661" />
    <linearGradient
       inkscape:collect="always"
       xlink:href="#linearGradient33317"
       id="linearGradient5102"
       gradientUnits="userSpaceOnUse"
       x1="-272.60001"
       y1="-0.20692661"
       x2="272.60001"
       y2="-0.20692661" />
    <linearGradient
       inkscape:collect="always"
       xlink:href="#linearGradient33317"
       id="linearGradient5104"
       gradientUnits="userSpaceOnUse"
       x1="-272.60001"
       y1="-0.20692661"
       x2="272.60001"
       y2="-0.20692661" />
    <linearGradient
       inkscape:collect="always"
       xlink:href="#linearGradient33317"
       id="linearGradient5420"
       gradientUnits="userSpaceOnUse"
       x1="-272.60001"
       y1="-0.20692661"
       x2="272.60001"
       y2="-0.20692661" />
    <linearGradient
       inkscape:collect="always"
       xlink:href="#linearGradient33317"
       id="linearGradient6707"
       x1="-253"
       y1="0"
       x2="253"
       y2="0"
       gradientUnits="userSpaceOnUse" />
    <linearGradient
       inkscape:collect="always"
       xlink:href="#linearGradient33317"
       id="linearGradient6709"
       gradientUnits="userSpaceOnUse"
       x1="-253"
       y1="0"
       x2="253"
       y2="0" />
    <linearGradient
       inkscape:collect="always"
       xlink:href="#linearGradient33317"
       id="linearGradient7694"
       gradientUnits="userSpaceOnUse"
       x1="-253"
       y1="0"
       x2="253"
       y2="0" />
    <linearGradient
       inkscape:collect="always"
       xlink:href="#linearGradient33317"
       id="linearGradient7696"
       gradientUnits="userSpaceOnUse"
       x1="-253"
       y1="0"
       x2="253"
       y2="0" />
  </defs>
  <sodipodi:namedview
     inkscape:window-height="979"
     inkscape:window-width="1400"
     inkscape:pageshadow="2"
     inkscape:pageopacity="0.0"
     borderopacity="1.0"
     bordercolor="#666666"
     pagecolor="#ffffff"
     id="base"
     inkscape:zoom="2.0000001"
     inkscape:cx="108.17151"
     inkscape:cy="5.3591385"
     inkscape:window-x="0"
     inkscape:window-y="0"
     inkscape:current-layer="svg27169"
     width="128px"
     height="128px" />
  <g
     id="g7688"
     transform="matrix(0.6897938,0,0,0.6897938,203.10913,89.214398)">
    <g
       style="fill:#000000;fill-opacity:0.39215686"
       id="g6711"
       transform="matrix(2.1083375,0,0,-2.1083375,441.94174,319.38838)">
      <path
         style="fill:#000000;fill-opacity:0.39215686"
         id="path6713"
         d="M -8,165 C -2.6666667,167.66667 3,167.66667 9,165 C 15,162.33333 18.666667,159 20,155 C 22,151 23,137 23,113 L 24,75 L 39,97 C 49,112.33333 55.666667,120.66667 59,122 C 65,125.33333 71.333333,125.66667 78,123 C 82,119.66667 100.33333,99 133,61 L 182,1 L 192,16 C 206.66667,39.333333 216.33333,52 221,54 C 227.66667,58 234,58.333333 240,55 C 244.66667,52.333333 248.33333,49 251,45 C 253.66667,38.333333 253.66667,32 251,26 L 201,-49 L 155,-119 L 149,-122 C 143,-125.33333 136.66667,-125.66667 130,-123 C 126,-119.66667 108,-99 76,-61 L 33.5,-11.5 C 33.5,-11.5 30.333333,-8.6666667 24,-3 C 17.666667,2.6666667 17.333333,-21.666667 23,-76 L 23,-148 L 21,-153 C 18.333333,-157 16.666667,-159.66667 16,-161 C 10.666667,-165 5.6666667,-167 1,-167 C -4.3333333,-167 -9.6666667,-165 -15,-161 C -15.666667,-159.66667 -17.333333,-157 -20,-153 C -21.333333,-150.33333 -22,-136.33333 -22,-111 L -22,-73 L -38,-96 C -48.666667,-112 -55.666667,-120.66667 -59,-122 C -65,-125.33333 -71.333333,-125.66667 -78,-123 C -82,-119.66667 -100.33333,-99 -133,-61 L -182,-1 L -192,-16 C -206.66667,-39.333333 -216.33333,-52 -221,-54 C -227.66667,-58 -234,-58.333333 -240,-55 C -244.66667,-52.333333 -248.33333,-48.666667 -251,-44 C -253.66667,-38 -253.66667,-31.666667 -251,-25 L -201,50 L -154,120 L -149,122 C -143,125.33333 -136.66667,125.66667 -130,123 C -126,119.66667 -107.66667,99 -75,61 L -26,1 L -24,4 C -22.666667,5.3333333 -22,30 -22,78 C -22,125.33333 -21.333333,150.33333 -20,153 C -17.333333,158.33333 -13.333333,162.33333 -8,165 z " />
    </g>
    <g
       style="fill:url(#linearGradient7694);fill-opacity:1"
       id="g5680"
       transform="matrix(2.1083376,0,0,-2.1083376,418.86877,291.76705)">
      <path
         style="fill:url(#linearGradient7696);fill-opacity:1"
         id="path5682"
         d="M -8,165 C -2.6666667,167.66667 3,167.66667 9,165 C 15,162.33333 18.666667,159 20,155 C 22,151 23,137 23,113 L 24,75 L 39,97 C 49,112.33333 55.666667,120.66667 59,122 C 65,125.33333 71.333333,125.66667 78,123 C 82,119.66667 100.33333,99 133,61 L 182,1 L 192,16 C 206.66667,39.333333 216.33333,52 221,54 C 227.66667,58 234,58.333333 240,55 C 244.66667,52.333333 248.33333,49 251,45 C 253.66667,38.333333 253.66667,32 251,26 L 201,-49 L 155,-119 L 149,-122 C 143,-125.33333 136.66667,-125.66667 130,-123 C 126,-119.66667 108,-99 76,-61 L 33.5,-11.5 C 33.5,-11.5 30.333333,-8.6666667 24,-3 C 17.666667,2.6666667 17.333333,-21.666667 23,-76 L 23,-148 L 21,-153 C 18.333333,-157 16.666667,-159.66667 16,-161 C 10.666667,-165 5.6666667,-167 1,-167 C -4.3333333,-167 -9.6666667,-165 -15,-161 C -15.666667,-159.66667 -17.333333,-157 -20,-153 C -21.333333,-150.33333 -22,-136.33333 -22,-111 L -22,-73 L -38,-96 C -48.666667,-112 -55.666667,-120.66667 -59,-122 C -65,-125.33333 -71.333333,-125.66667 -78,-123 C -82,-119.66667 -100.33333,-99 -133,-61 L -182,-1 L -192,-16 C -206.66667,-39.333333 -216.33333,-52 -221,-54 C -227.66667,-58 -234,-58.333333 -240,-55 C -244.66667,-52.333333 -248.33333,-48.666667 -251,-44 C -253.66667,-38 -253.66667,-31.666667 -251,-25 L -201,50 L -154,120 L -149,122 C -143,125.33333 -136.66667,125.66667 -130,123 C -126,119.66667 -107.66667,99 -75,61 L -26,1 L -24,4 C -22.666667,5.3333333 -22,30 -22,78 C -22,125.33333 -21.333333,150.33333 -20,153 C -17.333333,158.33333 -13.333333,162.33333 -8,165 z " />
    </g>
  </g>
</svg>

<?xml version="1.0" standalone="no"?>
<!DOCTYPE svg PUBLIC "-//W3C//DTD SVG 1.1//EN" "http://www.w3.org/Graphics/SVG/1.1/DTD/svg11.dtd" >
<svg viewBox="-253 -200 1000 1000">
  <g transform="matrix(1 0 0 -1 0 800)">
   <path fill="currentColor"
d="M-8 165q8 4 17 0t11 -10q3 -6 3 -42l1 -38l15 22q15 23 20 25q9 5 19 1q6 -5 55 -62l49 -60l10 15q22 35 29 38q10 6 19 1q7 -4 11 -10q4 -10 0 -19l-50 -75l-46 -70l-6 -3q-9 -5 -19 -1q-6 5 -54 62l-42.5 49.5t-9.5 8.5t-1 -73v-72l-2 -5q-4 -6 -5 -8q-8 -6 -15 -6
q-8 0 -16 6q-1 2 -5 8q-2 4 -2 42v38l-16 -23q-16 -24 -21 -26q-9 -5 -19 -1q-6 5 -55 62l-49 60l-10 -15q-22 -35 -29 -38q-10 -6 -19 -1q-7 4 -11 11q-4 9 0 19l50 75l47 70l5 2q9 5 19 1q6 -5 55 -62l49 -60l2 3q2 2 2 74q0 71 2 75q4 8 12 12z" />
  </g>

</svg>
